images/portal/5816.svg

<?xml version="1.0" standalone="no"?><!DOCTYPE svg PUBLIC "-//W3C//DTD SVG 1.1//EN" "http://www.w3.org/Graphics/SVG/1.1/DTD/svg11.dtd"><svg xmlns:xlink="http://www.w3.org/1999/xlink" version="1.1" class="highcharts-root" style="font-family:arial;font-size:12px;" xmlns="http://www.w3.org/2000/svg" width="485" height="415"><desc>Created with Highstock 5.0.14</desc><defs><clipPath id="highcharts-p4jp8ea-6"><rect x="0" y="0" width="423" height="238" fill="none"></rect></clipPath><clipPath id="highcharts-p4jp8ea-7"><rect x="0" y="0" width="423" height="238" fill="none"></rect></clipPath></defs><rect fill="#fbfbfb" class="highcharts-background" x="0" y="0" width="485" height="415" rx="0" ry="0"></rect><rect fill="none" class="highcharts-plot-background" x="52" y="111" width="423" height="238"></rect><g class="highcharts-pane-group"></g><g class="highcharts-grid highcharts-xaxis-grid "><path fill="none" class="highcharts-grid-line" d="M 76.5 111 L 76.5 349" opacity="1"></path><path fill="none" class="highcharts-grid-line" d="M 117.5 111 L 117.5 349" opacity="1"></path><path fill="none" class="highcharts-grid-line" d="M 159.5 111 L 159.5 349" opacity="1"></path><path fill="none" class="highcharts-grid-line" d="M 200.5 111 L 200.5 349" opacity="1"></path><path fill="none" class="highcharts-grid-line" d="M 242.5 111 L 242.5 349" opacity="1"></path><path fill="none" class="highcharts-grid-line" d="M 283.5 111 L 283.5 349" opacity="1"></path><path fill="none" class="highcharts-grid-line" d="M 325.5 111 L 325.5 349" opacity="1"></path><path fill="none" class="highcharts-grid-line" d="M 366.5 111 L 366.5 349" opacity="1"></path><path fill="none" class="highcharts-grid-line" d="M 408.5 111 L 408.5 349" opacity="1"></path><path fill="none" class="highcharts-grid-line" d="M 449.5 111 L 449.5 349" opacity="1"></path></g><g class="highcharts-grid highcharts-yaxis-grid "><path fill="none" stroke="#B9CFD7" stroke-width="0.5" class="highcharts-grid-line" d="M 52 349.25 L 475 349.25" opacity="1"></path><path fill="none" stroke="#B9CFD7" stroke-width="0.5" class="highcharts-grid-line" d="M 52 301.25 L 475 301.25" opacity="1"></path><path fill="none" stroke="#B9CFD7" stroke-width="0.5" class="highcharts-grid-line" d="M 52 254.25 L 475 254.25" opacity="1"></path><path fill="none" stroke="#B9CFD7" stroke-width="0.5" class="highcharts-grid-line" d="M 52 206.25 L 475 206.25" opacity="1"></path><path fill="none" stroke="#B9CFD7" stroke-width="0.5" class="highcharts-grid-line" d="M 52 159.25 L 475 159.25" opacity="1"></path><path fill="none" stroke="#B9CFD7" stroke-width="0.5" class="highcharts-grid-line" d="M 52 111.25 L 475 111.25" opacity="1"></path></g><rect fill="none" class="highcharts-plot-border" x="52" y="111" width="423" height="238"></rect><g class="highcharts-axis highcharts-xaxis "><path fill="none" class="highcharts-axis-line" stroke="#B9CFD7" stroke-width="0.5" d="M 52 349.25 L 475 349.25"></path></g><g class="highcharts-axis highcharts-yaxis "><path fill="none" class="highcharts-axis-line" d="M 52 111 L 52 349"></path></g><g class="highcharts-series-group"><g class="highcharts-series highcharts-series-0 highcharts-column-series highcharts-color-undefined " transform="translate(52,111) scale(1 1)" clip-path="url(#highcharts-p4jp8ea-7)"><rect x="17" y="169" width="15" height="22" fill="#b475ab" class="highcharts-point"></rect><rect x="59" y="153" width="15" height="38" fill="#b475ab" class="highcharts-point"></rect><rect x="100" y="102" width="15" height="89" fill="#b475ab" class="highcharts-point"></rect><rect x="142" y="121" width="15" height="70" fill="#b475ab" class="highcharts-point"></rect><rect x="183" y="121" width="15" height="67" fill="#b475ab" class="highcharts-point"></rect><rect x="225" y="135" width="15" height="51" fill="#b475ab" class="highcharts-point"></rect><rect x="266" y="151" width="15" height="34" fill="#b475ab" class="highcharts-point"></rect><rect x="308" y="87" width="15" height="70" fill="#b475ab" class="highcharts-point"></rect><rect x="349" y="37" width="15" height="150" fill="#b475ab" class="highcharts-point"></rect><rect x="391" y="93" width="15" height="78" fill="#b475ab" class="highcharts-point"></rect></g><g class="highcharts-markers highcharts-series-0 highcharts-column-series highcharts-color-undefined " transform="translate(52,111) scale(1 1)" clip-path="none"></g><g class="highcharts-series highcharts-series-1 highcharts-column-series highcharts-color-undefined " transform="translate(52,111) scale(1 1)" clip-path="url(#highcharts-p4jp8ea-7)"><rect x="17" y="205" width="15" height="21" fill="#a8c4cb" class="highcharts-point highcharts-negative"></rect><rect x="59" y="197" width="15" height="24" fill="#a8c4cb" class="highcharts-point highcharts-negative"></rect><rect x="100" y="195" width="15" height="28" fill="#a8c4cb" class="highcharts-point highcharts-negative"></rect><rect x="142" y="195" width="15" height="28" fill="#a8c4cb" class="highcharts-point highcharts-negative"></rect><rect x="183" y="191" width="15" height="11" fill="#a8c4cb" class="highcharts-point highcharts-negative"></rect><rect x="225" y="191" width="15" height="5" fill="#a8c4cb" class="highcharts-point highcharts-negative"></rect><rect x="266" y="191" width="15" height="8" fill="#a8c4cb" class="highcharts-point highcharts-negative"></rect><rect x="308" y="191" width="15" height="10" fill="#a8c4cb" class="highcharts-point highcharts-negative"></rect><rect x="349" y="191" width="15" height="34" fill="#a8c4cb" class="highcharts-point highcharts-negative"></rect><rect x="391" y="191" width="15" height="15" fill="#a8c4cb" class="highcharts-point highcharts-negative"></rect></g><g class="highcharts-markers highcharts-series-1 highcharts-column-series highcharts-color-undefined " transform="translate(52,111) scale(1 1)" clip-path="none"></g><g class="highcharts-series highcharts-series-2 highcharts-column-series highcharts-color-undefined " transform="translate(52,111) scale(1 1)" clip-path="url(#highcharts-p4jp8ea-7)"><rect x="17" y="191" width="15" height="14" fill="#fabd24" class="highcharts-point highcharts-negative"></rect><rect x="59" y="191" width="15" height="6" fill="#fabd24" class="highcharts-point highcharts-negative"></rect><rect x="100" y="191" width="15" height="4" fill="#fabd24" class="highcharts-point highcharts-negative"></rect><rect x="142" y="191" width="15" height="4" fill="#fabd24" class="highcharts-point highcharts-negative"></rect><rect x="183" y="188" width="15" height="3" fill="#fabd24" class="highcharts-point"></rect><rect x="225" y="186" width="15" height="5" fill="#fabd24" class="highcharts-point"></rect><rect x="266" y="185" width="15" height="6" fill="#fabd24" class="highcharts-point"></rect><rect x="308" y="157" width="15" height="34" fill="#fabd24" class="highcharts-point"></rect><rect x="349" y="187" width="15" height="4" fill="#fabd24" class="highcharts-point"></rect><rect x="391" y="171" width="15" height="20" fill="#fabd24" class="highcharts-point"></rect></g><g class="highcharts-markers highcharts-series-2 highcharts-column-series highcharts-color-undefined " transform="translate(52,111) scale(1 1)" clip-path="none"></g><g class="highcharts-series highcharts-series-3 highcharts-line-series highcharts-color-undefined " transform="translate(52,111) scale(1 1)" clip-path="url(#highcharts-p4jp8ea-7)"><path fill="none" d="M 24.515717092335 202.0144 L 66.067779960705 181.2608 L 107.61984282907 133.27999999999997 L 149.17190569744 150.7968 L 190.72396856581 131.1856 L 232.27603143419 138.992 L 273.82809430256 157.8416 L 315.38015717093 95.96159999999998 L 356.9322200393 69.49599999999998 L 398.48428290767 106.05279999999999" class="highcharts-graph" stroke="#000000" stroke-width="2" stroke-linejoin="round" stroke-linecap="round"></path></g><g class="highcharts-markers highcharts-series-3 highcharts-line-series highcharts-color-undefined " transform="translate(52,111) scale(1 1)" clip-path="none"></g></g><text x="10" text-anchor="start" class="highcharts-title" style="color:#000000;font-size:14px;font-weight:bold;fill:#000000;" y="21"><tspan>Nettowohnungsproduktion</tspan></text><g class="highcharts-legend" transform="translate(50,50)"><rect fill="none" class="highcharts-legend-box" rx="0" ry="0" x="0" y="0" width="273" height="49" visibility="visible"></rect><g><g><g class="highcharts-legend-item highcharts-column-series highcharts-color-undefined highcharts-series-0" transform="translate(8,3)"><text x="21" style="color:#333333;font-size:12px;font-weight:normal;cursor:pointer;fill:#333333;" text-anchor="start" y="15"><tspan>Neubau</tspan></text><rect x="2" y="4" width="12" height="12" fill="#b475ab" class="highcharts-point"></rect></g><g class="highcharts-legend-item highcharts-column-series highcharts-color-undefined highcharts-series-1" transform="translate(91.015625,3)"><text x="21" y="15" style="color:#333333;font-size:12px;font-weight:normal;cursor:pointer;fill:#333333;" text-anchor="start"><tspan>Abbruch</tspan></text><rect x="2" y="4" width="12" height="12" fill="#a8c4cb" class="highcharts-point"></rect></g><g class="highcharts-legend-item highcharts-column-series highcharts-color-undefined highcharts-series-2" transform="translate(176.6875,3)"><text x="21" y="15" style="color:#333333;font-size:12px;font-weight:normal;cursor:pointer;fill:#333333;" text-anchor="start"><tspan>Umbausaldo</tspan></text><rect x="2" y="4" width="12" height="12" fill="#fabd24" class="highcharts-point"></rect></g><g class="highcharts-legend-item highcharts-line-series highcharts-color-undefined highcharts-series-3" transform="translate(8,22)"><path fill="none" d="M 0 11 L 16 11" class="highcharts-graph" stroke="#000000" stroke-width="2"></path><text x="21" y="15" style="color:#333333;font-size:12px;font-weight:normal;cursor:pointer;fill:#333333;" text-anchor="start"><tspan>Nettowohnungsproduktion</tspan></text></g></g></g></g><g class="highcharts-axis-labels highcharts-xaxis-labels "><text x="76.51571709233491" style="color:#000000;cursor:default;font-size:11px;fill:#000000;" text-anchor="middle" transform="translate(0,0)" y="368" opacity="1">2007</text><text x="118.06777996070494" style="color:#000000;cursor:default;font-size:11px;fill:#000000;" text-anchor="middle" transform="translate(0,0)" y="368" opacity="1">2008</text><text x="159.61984282907497" style="color:#000000;cursor:default;font-size:11px;fill:#000000;" text-anchor="middle" transform="translate(0,0)" y="368" opacity="1">2009</text><text x="201.17190569744497" style="color:#000000;cursor:default;font-size:11px;fill:#000000;" text-anchor="middle" transform="translate(0,0)" y="368" opacity="1">2010</text><text x="242.723968565815" style="color:#000000;cursor:default;font-size:11px;fill:#000000;" text-anchor="middle" transform="translate(0,0)" y="368" opacity="1">2011</text><text x="284.27603143418503" style="color:#000000;cursor:default;font-size:11px;fill:#000000;" text-anchor="middle" transform="translate(0,0)" y="368" opacity="1">2012</text><text x="325.82809430255503" style="color:#000000;cursor:default;font-size:11px;fill:#000000;" text-anchor="middle" transform="translate(0,0)" y="368" opacity="1">2013</text><text x="367.3801571709251" style="color:#000000;cursor:default;font-size:11px;fill:#000000;" text-anchor="middle" transform="translate(0,0)" y="368" opacity="1">2014</text><text x="408.9322200392951" style="color:#000000;cursor:default;font-size:11px;fill:#000000;" text-anchor="middle" transform="translate(0,0)" y="368" opacity="1">2015</text><text x="450.48428290766515" style="color:#000000;cursor:default;font-size:11px;fill:#000000;" text-anchor="middle" transform="translate(0,0)" y="368" opacity="1">2016</text></g><g class="highcharts-axis-labels highcharts-yaxis-labels "><text x="37" style="color:#000000;cursor:default;font-size:11px;fill:#000000;" text-anchor="end" transform="translate(0,0)" y="354" opacity="1"><tspan>-250</tspan></text><text x="37" style="color:#000000;cursor:default;font-size:11px;fill:#000000;" text-anchor="end" transform="translate(0,0)" y="306" opacity="1"><tspan>0</tspan></text><text x="37" style="color:#000000;cursor:default;font-size:11px;fill:#000000;" text-anchor="end" transform="translate(0,0)" y="258" opacity="1"><tspan>250</tspan></text><text x="37" style="color:#000000;cursor:default;font-size:11px;fill:#000000;" text-anchor="end" transform="translate(0,0)" y="211" opacity="1"><tspan>500</tspan></text><text x="37" style="color:#000000;cursor:default;font-size:11px;fill:#000000;" text-anchor="end" transform="translate(0,0)" y="163" opacity="1"><tspan>750</tspan></text><text x="37" style="color:#000000;cursor:default;font-size:11px;fill:#000000;" text-anchor="end" transform="translate(0,0)" y="115" opacity="1"><tspan>1 000</tspan></text></g><text x="10" class="highcharts-credits" text-anchor="start" style="cursor:default;color:#000000;font-size:10px;fill:#000000;" y="400"><tspan>Quelle: Statistisches Amt Basel-Stadt, kantonale Gebäude- und Wohnungsstatistik</tspan></text></svg>

<svg class="highcharts-root" xmlns="http://www.w3.org/2000/svg" width="485" height="415" font-family="arial" font-size="12">
    <defs>
        <clipPath id="a">
            <path fill="none" d="M0 0h423v238H0z"/>
        </clipPath>
    </defs>
    <rect fill="#fbfbfb" class="highcharts-background" width="485" height="415" rx="0" ry="0"/>
    <path fill="none" class="highcharts-plot-background" d="M52 111h423v238H52z"/>
    <g class="highcharts-grid highcharts-xaxis-grid">
        <path fill="none" class="highcharts-grid-line" d="M76.5 111v238m41-238v238m42-238v238m41-238v238m42-238v238m41-238v238m42-238v238m41-238v238m42-238v238m41-238v238"/>
    </g>
    <g class="highcharts-grid highcharts-yaxis-grid">
        <path fill="none" stroke="#B9CFD7" stroke-width=".5" class="highcharts-grid-line" d="M52 349.25h423m-423-48h423m-423-47h423m-423-48h423m-423-47h423m-423-48h423"/>
    </g>
    <path fill="none" class="highcharts-plot-border" d="M52 111h423v238H52z"/>
    <g class="highcharts-axis highcharts-xaxis">
        <path fill="none" class="highcharts-axis-line" stroke="#B9CFD7" stroke-width=".5" d="M52 349.25h423"/>
    </g>
    <g class="highcharts-axis highcharts-yaxis">
        <path fill="none" class="highcharts-axis-line" d="M52 111v238"/>
    </g>
    <g class="highcharts-series-group">
        <g class="highcharts-series highcharts-series-0 highcharts-column-series highcharts-color-undefined" transform="translate(52 111)" clip-path="url(#a)">
            <path fill="#b475ab" class="highcharts-point" d="M17 169h15v22H17zm42-16h15v38H59zm41-51h15v89h-15zm42 19h15v70h-15zm41 0h15v67h-15zm42 14h15v51h-15zm41 16h15v34h-15zm42-64h15v70h-15zm41-50h15v150h-15zm42 56h15v78h-15z"/>
        </g>
        <g class="highcharts-series highcharts-series-1 highcharts-column-series highcharts-color-undefined" transform="translate(52 111)" clip-path="url(#a)">
            <path fill="#a8c4cb" class="highcharts-point highcharts-negative" d="M17 205h15v21H17zm42-8h15v24H59zm41-2h15v28h-15zm42 0h15v28h-15zm41-4h15v11h-15zm42 0h15v5h-15zm41 0h15v8h-15zm42 0h15v10h-15zm41 0h15v34h-15zm42 0h15v15h-15z"/>
        </g>
        <g class="highcharts-series highcharts-series-2 highcharts-column-series highcharts-color-undefined" transform="translate(52 111)" clip-path="url(#a)">
            <path fill="#fabd24" class="highcharts-point highcharts-negative" d="M17 191h15v14H17zm42 0h15v6H59zm41 0h15v4h-15zm42 0h15v4h-15z"/>
            <path fill="#fabd24" class="highcharts-point" d="M183 188h15v3h-15zm42-2h15v5h-15zm41-1h15v6h-15zm42-28h15v34h-15zm41 30h15v4h-15zm42-16h15v20h-15z"/>
        </g>
        <g class="highcharts-series highcharts-series-3 highcharts-line-series highcharts-color-undefined" transform="translate(52 111)" clip-path="url(#a)">
            <path fill="none" d="M24.516 202.014l41.552-20.753 41.552-47.981 41.552 17.517 41.552-19.611 41.552 7.806 41.552 18.85 41.552-61.88 41.552-26.466 41.552 36.557" class="highcharts-graph" stroke="#000" stroke-width="2" stroke-linejoin="round" stroke-linecap="round"/>
        </g>
    </g>
    <text x="10" class="highcharts-title" y="21" color="#000" font-size="14" font-weight="700">
        <tspan>Nettowohnungsproduktion</tspan>
    </text>
    <g class="highcharts-legend" transform="translate(50 50)">
        <rect fill="none" class="highcharts-legend-box" rx="0" ry="0" width="273" height="49"/>
        <g class="highcharts-legend-item highcharts-column-series highcharts-color-undefined highcharts-series-0">
            <text x="21" y="15" color="#333" font-weight="400" cursor="pointer" fill="#333" transform="translate(8 3)">
                <tspan>Neubau</tspan>
            </text>
            <path fill="#b475ab" class="highcharts-point" d="M10 7h12v12H10z"/>
        </g>
        <g class="highcharts-legend-item highcharts-column-series highcharts-color-undefined highcharts-series-1">
            <text x="21" y="15" color="#333" font-weight="400" cursor="pointer" fill="#333" transform="translate(91.016 3)">
                <tspan>Abbruch</tspan>
            </text>
            <path fill="#a8c4cb" class="highcharts-point" d="M93.016 7h12v12h-12z"/>
        </g>
        <g class="highcharts-legend-item highcharts-column-series highcharts-color-undefined highcharts-series-2">
            <text x="21" y="15" color="#333" font-weight="400" cursor="pointer" fill="#333" transform="translate(176.688 3)">
                <tspan>Umbausaldo</tspan>
            </text>
            <path fill="#fabd24" class="highcharts-point" d="M178.688 7h12v12h-12z"/>
        </g>
        <g class="highcharts-legend-item highcharts-line-series highcharts-color-undefined highcharts-series-3">
            <path fill="none" d="M8 33h16" class="highcharts-graph" stroke="#000" stroke-width="2"/>
            <text x="21" y="15" color="#333" font-weight="400" cursor="pointer" fill="#333" transform="translate(8 22)">
                <tspan>Nettowohnungsproduktion</tspan>
            </text>
        </g>
    </g>
    <g class="highcharts-axis-labels highcharts-xaxis-labels" text-anchor="middle" color="#000" cursor="default" font-size="11">
        <text x="76.516" y="368">
            2007
        </text>
        <text x="118.068" y="368">
            2008
        </text>
        <text x="159.62" y="368">
            2009
        </text>
        <text x="201.172" y="368">
            2010
        </text>
        <text x="242.724" y="368">
            2011
        </text>
        <text x="284.276" y="368">
            2012
        </text>
        <text x="325.828" y="368">
            2013
        </text>
        <text x="367.38" y="368">
            2014
        </text>
        <text x="408.932" y="368">
            2015
        </text>
        <text x="450.484" y="368">
            2016
        </text>
    </g>
    <g class="highcharts-axis-labels highcharts-yaxis-labels" text-anchor="end" color="#000" cursor="default" font-size="11">
        <text x="37" y="354">
            <tspan>-250</tspan>
        </text>
        <text x="37" y="306">
            <tspan>0</tspan>
        </text>
        <text x="37" y="258">
            <tspan>250</tspan>
        </text>
        <text x="37" y="211">
            <tspan>500</tspan>
        </text>
        <text x="37" y="163">
            <tspan>750</tspan>
        </text>
        <text x="37" y="115">
            <tspan>1 000</tspan>
        </text>
    </g>
    <text x="10" class="highcharts-credits" y="400" cursor="default" color="#000" font-size="10">
        <tspan>Quelle: Statistisches Amt Basel-Stadt, kantonale Gebäude- und Wohnungsstatistik</tspan>
    </text>
</svg>
